X: 1
T: Pezinho  [D]
T: Little foot
M:4/4
L:1/8
O:Brazil
A:South of Brazil, state of Rio Grande do Sul
C:Trad
%Q:220
R:Gaucho March
Z:Meletti (jrmeletti@email.com)
K:D
   [AF][AF][AF] \
|  "D"[FD][AF][AF][AF] [BG][AF][GE][FD] | "A7"[A2E2][E2-C2-] [EC][EC][EC][FD] \
| "A7"[GE][FD][EC][FD] [GE][FD][GE][AF] | "D"[F4D4] z :|
|: [AF][AF][AF] \
|  "D"[d4-F4-] [dF][cA][BG][AF] | "A7"[c2A2][G2-E2-] [GE][AE][AE][AE] \
| "A7"[c4-A4-] [cA][BG][AF][GE] |1 "D"[B2F2][F2D2] z :|2 "D"[F4D4] z |]


%%sep 1 1 500

%%sep 1 1 500

